svg/color/kec.svg

<?xml version="1.0" encoding="UTF-8" ?>
<!DOCTYPE svg PUBLIC "-//W3C//DTD SVG 1.1//EN" "http://www.w3.org/Graphics/SVG/1.1/DTD/svg11.dtd">
<svg width="250pt" height="250pt" viewBox="0 0 250 250" version="1.1" xmlns="http://www.w3.org/2000/svg">
<g id="#ffffffff">
<path fill="#ffffff" opacity="1.00" d=" M 0.00 0.00 L 124.93 0.00 C 86.79 38.47 48.36 76.67 10.14 115.07 C 6.99 118.32 3.54 121.29 0.65 124.79 L 0.00 124.45 L 0.00 0.00 Z" />
<path fill="#ffffff" opacity="1.00" d=" M 125.53 0.00 L 250.00 0.00 L 250.00 250.00 L 125.12 250.00 C 135.30 239.63 145.66 229.45 155.88 219.11 C 151.12 214.52 146.51 209.79 141.83 205.12 C 136.04 210.40 130.58 216.17 125.06 221.77 C 115.59 211.99 105.81 202.50 96.29 192.78 C 96.29 174.55 96.28 156.31 96.28 138.08 C 96.39 137.88 96.60 137.47 96.71 137.27 C 100.06 141.23 103.94 144.69 107.55 148.42 C 127.37 168.23 147.14 188.08 166.96 207.87 L 167.62 207.85 C 172.21 203.23 176.79 198.59 181.43 194.02 C 158.42 171.03 135.53 147.92 112.44 125.01 C 135.20 102.07 158.19 79.34 180.86 56.32 C 176.13 51.73 171.37 47.16 166.94 42.30 C 143.22 65.51 119.92 89.31 96.33 112.72 C 96.25 94.22 96.27 75.71 96.32 57.21 C 105.83 47.50 115.62 38.04 125.04 28.24 C 130.37 33.86 136.01 39.18 141.40 44.75 L 141.98 44.70 C 146.57 40.13 151.02 35.41 155.77 31.01 L 155.57 30.50 C 145.60 20.59 135.77 10.54 125.72 0.71 L 125.53 0.00 M 192.25 67.30 C 187.75 72.08 183.06 76.69 178.36 81.27 C 178.69 81.70 179.34 82.58 179.66 83.01 C 189.87 93.29 200.08 103.58 210.38 113.77 C 210.54 114.04 210.85 114.57 211.00 114.83 L 210.21 115.21 C 190.48 115.01 170.74 115.22 151.01 115.10 C 148.81 115.32 146.54 114.72 144.41 115.45 C 141.51 118.83 138.02 121.69 135.10 125.02 C 138.14 128.57 141.80 131.74 145.02 135.19 C 166.99 135.17 188.97 135.18 210.95 135.19 L 210.82 135.78 C 199.97 146.56 189.25 157.54 178.31 168.25 C 182.62 173.26 187.90 177.64 192.27 182.68 C 210.52 164.49 228.71 146.23 246.92 128.00 C 247.86 127.10 248.92 126.24 249.34 124.95 C 247.16 121.49 243.67 118.98 240.92 115.95 C 224.71 99.73 208.55 83.43 192.25 67.30 Z" />
<path fill="#ffffff" opacity="1.00" d=" M 75.66 77.44 C 76.38 78.14 76.55 78.97 76.17 79.92 C 76.27 110.70 76.17 141.50 76.22 172.29 L 75.34 171.87 C 59.74 156.22 44.17 140.55 28.50 124.98 C 42.26 111.49 55.76 97.74 69.41 84.13 C 71.48 81.90 73.98 79.99 75.66 77.44 Z" />
<path fill="#ffffff" opacity="1.00" d=" M 0.00 124.94 C 40.75 165.53 81.33 206.29 121.99 246.97 C 122.44 248.14 125.26 248.68 124.33 250.00 L 0.00 250.00 L 0.00 124.94 Z" />
</g>
<g id="#000000ff">
<path fill="#000000" opacity="1.00" d=" M 124.93 0.00 L 125.53 0.00 L 125.72 0.71 C 135.77 10.54 145.60 20.59 155.57 30.50 L 155.77 31.01 C 151.02 35.41 146.57 40.13 141.98 44.70 L 141.40 44.75 C 136.01 39.18 130.37 33.86 125.04 28.24 C 115.62 38.04 105.83 47.50 96.32 57.21 C 96.27 75.71 96.25 94.22 96.33 112.72 C 119.92 89.31 143.22 65.51 166.94 42.30 C 171.37 47.16 176.13 51.73 180.86 56.32 C 158.19 79.34 135.20 102.07 112.44 125.01 C 135.53 147.92 158.42 171.03 181.43 194.02 C 176.79 198.59 172.21 203.23 167.62 207.85 L 166.96 207.87 C 147.14 188.08 127.37 168.23 107.55 148.42 C 103.94 144.69 100.06 141.23 96.71 137.27 C 96.60 137.47 96.39 137.88 96.28 138.08 C 96.28 156.31 96.29 174.55 96.29 192.78 C 105.81 202.50 115.59 211.99 125.06 221.77 C 130.58 216.17 136.04 210.40 141.83 205.12 C 146.51 209.79 151.12 214.52 155.88 219.11 C 145.66 229.45 135.30 239.63 125.12 250.00 L 124.33 250.00 C 125.26 248.68 122.44 248.14 121.99 246.97 C 81.33 206.29 40.75 165.53 0.00 124.94 L 0.00 124.45 L 0.65 124.79 C 3.54 121.29 6.99 118.32 10.14 115.07 C 48.36 76.67 86.79 38.47 124.93 0.00 M 75.66 77.44 C 73.98 79.99 71.48 81.90 69.41 84.13 C 55.76 97.74 42.26 111.49 28.50 124.98 C 44.17 140.55 59.74 156.22 75.34 171.87 L 76.22 172.29 C 76.17 141.50 76.27 110.70 76.17 79.92 C 76.55 78.97 76.38 78.14 75.66 77.44 Z" />
<path fill="#000000" opacity="1.00" d=" M 192.25 67.30 C 208.55 83.43 224.71 99.73 240.92 115.95 C 243.67 118.98 247.16 121.49 249.34 124.95 C 248.92 126.24 247.86 127.10 246.92 128.00 C 228.71 146.23 210.52 164.49 192.27 182.68 C 187.90 177.64 182.62 173.26 178.31 168.25 C 189.25 157.54 199.97 146.56 210.82 135.78 L 210.95 135.19 C 188.97 135.18 166.99 135.17 145.02 135.19 C 141.80 131.74 138.14 128.57 135.10 125.02 C 138.02 121.69 141.51 118.83 144.41 115.45 C 146.54 114.72 148.81 115.32 151.01 115.10 C 170.74 115.22 190.48 115.01 210.21 115.21 L 211.00 114.83 C 210.85 114.57 210.54 114.04 210.38 113.77 C 200.08 103.58 189.87 93.29 179.66 83.01 C 179.34 82.58 178.69 81.70 178.36 81.27 C 183.06 76.69 187.75 72.08 192.25 67.30 Z" />
</g>
</svg>

<?xml version="1.0" encoding="utf-8"?>
<!-- Generator: Adobe Illustrator 26.0.3, SVG Export Plug-In . SVG Version: 6.00 Build 0)  -->
<svg version="1.1" id="Layer_1" xmlns="http://www.w3.org/2000/svg" xmlns:xlink="http://www.w3.org/1999/xlink" x="0px" y="0px"
	 viewBox="0 0 250 250" style="enable-background:new 0 0 250 250;" xml:space="preserve">
<style type="text/css">
	.st0{fill:#FFFFFF;}
</style>
<g id="_x23_ffffffff">
	<path class="st0" d="M75.7,77.4c0.7,0.7,0.9,1.5,0.5,2.5c0.1,30.8,0,61.6,0.1,92.4l-0.9-0.4c-15.6-15.6-31.2-31.3-46.8-46.9
		c13.8-13.5,27.3-27.2,40.9-40.9C71.5,81.9,74,80,75.7,77.4z"/>
</g>
<g id="_x23_000000ff">
	<path d="M124.9,0h0.6l0.2,0.7c10.1,9.8,19.9,19.9,29.9,29.8l0.2,0.5c-4.8,4.4-9.2,9.1-13.8,13.7l-0.6,0c-5.4-5.6-11-10.9-16.4-16.5
		c-9.4,9.8-19.2,19.3-28.7,29c-0.1,18.5-0.1,37,0,55.5c23.6-23.4,46.9-47.2,70.6-70.4c4.4,4.9,9.2,9.4,13.9,14
		c-22.7,23-45.7,45.8-68.4,68.7c23.1,22.9,46,46,69,69c-4.6,4.6-9.2,9.2-13.8,13.8l-0.7,0c-19.8-19.8-39.6-39.6-59.4-59.4
		c-3.6-3.7-7.5-7.2-10.8-11.1c-0.1,0.2-0.3,0.6-0.4,0.8c0,18.2,0,36.5,0,54.7c9.5,9.7,19.3,19.2,28.8,29c5.5-5.6,11-11.4,16.8-16.7
		c4.7,4.7,9.3,9.4,14.1,14c-10.2,10.3-20.6,20.5-30.8,30.9h-0.8c0.9-1.3-1.9-1.9-2.3-3c-40.7-40.7-81.2-81.4-122-122v-0.5l0.6,0.3
		c2.9-3.5,6.3-6.5,9.5-9.7C48.4,76.7,86.8,38.5,124.9,0 M75.7,77.4c-1.7,2.5-4.2,4.5-6.2,6.7C55.8,97.7,42.3,111.5,28.5,125
		c15.7,15.6,31.2,31.2,46.8,46.9l0.9,0.4c-0.1-30.8,0-61.6-0.1-92.4C76.6,79,76.4,78.1,75.7,77.4z"/>
	<path d="M192.2,67.3c16.3,16.1,32.5,32.4,48.7,48.6c2.8,3,6.2,5.5,8.4,9c-0.4,1.3-1.5,2.2-2.4,3.1c-18.2,18.2-36.4,36.5-54.6,54.7
		c-4.4-5-9.7-9.4-14-14.4c10.9-10.7,21.7-21.7,32.5-32.5l0.1-0.6c-22,0-44,0-65.9,0c-3.2-3.4-6.9-6.6-9.9-10.2
		c2.9-3.3,6.4-6.2,9.3-9.6c2.1-0.7,4.4-0.1,6.6-0.3c19.7,0.1,39.5-0.1,59.2,0.1l0.8-0.4c-0.1-0.3-0.5-0.8-0.6-1.1
		c-10.3-10.2-20.5-20.5-30.7-30.8c-0.3-0.4-1-1.3-1.3-1.7C183.1,76.7,187.8,72.1,192.2,67.3z"/>
</g>
</svg>
